X: 06029
T: HILLTOP HOUSE
C: Bob McQuillen June '81
B: Bob's Note Book 6 #29
%R: jig
Z: 2021 John Chambers <jc:trillian.mit.edu>
M: 6/8
L: 1/8
K: A
A2F \
| E2A AFA | FEE E2e | cAF Ace | dcd BAF |\
| E2A AcA | FEE E2e | cBA EAG | A3 :|
|: A2B \
| cee def | f2e c2e | dcd Bcd | efe cAB |\
| cde def | e2c e2a | ecA BcB | A3 :|
%%begintext align
%% 'Way up on top of Craney Hill
%% in Henniker, N.H., is where
%% you will find April Limber's
%% house - It's pretty up there -
%%endtext

%%sep 1 1 500

%%sep 1 1 500

